X:1
T:The Call
T:The Call
T:Public  domain
T:Public  domain
Z:Public  domain
%%score { ( 1 2 ) ( 3 4 ) }
L:1/8
Q:1/4=130
M:3/4
K:Eb
V:1 treble nm="P1"
V:2 treble 
V:3 bass nm="P2"
V:4 bass 
V:1
"^Editor: John Henry Fowler""^( Revision: 11-20-2007 )" E4 G2 |[M:6/4] B4 B2 c2 B2 A2 | %2
 B6"^( 1911 )" E4 G2 |[M:3/4] B4 B2 | c2 B2"^Ralph Vaughan Williams" A2 | %5
[M:6/4]"^( 1872 - 1958 )" B6 [Bd]4 [Bd]2 | [Ac]4 [Ac]2 [FB]4 [FA]2 | B6 A4 A2 | G4 G2 F2 G2 A2 | %9
 G2 F2 E2 F4 F2 | E12 |] %11
V:2
 C6 |[M:6/4] _D6 E6 | E4 _D2 C6 |[M:3/4] _D6 | E6 |[M:6/4] E4 _D2 _G4 F2- | F4 E2 E2 _D2 C2 | %7
 E6 F6 | E6 C6- | C6 _D4 C2 | B,12 |] %11
V:3
 E,6 |[M:6/4] F,6 A,6 | F,6 E,6 |[M:3/4] F,6 | A,6 |[M:6/4] F,6 B,6 | C6 F,4 F,2 | G,6 _D4 C2 | %8
 B,6 A,6- | A,6 B,6 | A,6 G,6 |] %11
V:4
 C,6 |[M:6/4] B,,6 A,,6 | B,,6 C,6 |[M:3/4] B,,6 | A,,6 |[M:6/4] B,,6 _G,,6 | A,,6 B,,4 x2 | %7
 E,6 _D,6 | E,6 F,6- | F,6 B,,6 | E,12 |] %11

